src/icons/svgs/24/magnifying-glass.svg

<svg width="24" height="24" viewBox="0 0 24 24" fill="none" xmlns="http://www.w3.org/2000/svg">
<path d="M20.7223 19.5586L16.0113 14.8477C17.0309 13.5996 17.5934 12.0281 17.5934 10.3125C17.5934 6.27305 14.3193 3 10.2809 3C6.24246 3 3 6.2741 3 10.3125C3 14.3509 6.27375 17.625 10.2809 17.625C11.9961 17.625 13.5697 17.0305 14.816 16.0416L19.527 20.7525C19.7238 20.9191 19.9418 21 20.1562 21C20.3707 21 20.588 20.9176 20.7529 20.7528C21.0809 20.4234 21.0809 19.8891 20.7223 19.5586ZM4.6875 10.3125C4.6875 7.21102 7.21102 4.6875 10.3125 4.6875C13.414 4.6875 15.9375 7.21102 15.9375 10.3125C15.9375 13.414 13.414 15.9375 10.3125 15.9375C7.21102 15.9375 4.6875 13.4133 4.6875 10.3125Z" fill="black"/>
</svg>

<svg width="24" height="24" viewBox="0 0 24 24" xmlns="http://www.w3.org/2000/svg">
    <path d="m20.722 19.559-4.71-4.711c1.019-1.248 1.581-2.82 1.581-4.536A7.312 7.312 0 0 0 10.281 3C6.242 3 3 6.274 3 10.313c0 4.038 3.274 7.312 7.28 7.312a7.27 7.27 0 0 0 4.536-1.583l4.711 4.71a.972.972 0 0 0 .63.248.844.844 0 0 0 .596-.247.822.822 0 0 0-.03-1.194zM4.687 10.312a5.632 5.632 0 0 1 5.625-5.624 5.632 5.632 0 0 1 5.626 5.625 5.632 5.632 0 0 1-5.626 5.624 5.632 5.632 0 0 1-5.624-5.624z"/>
</svg>
